X: 6874
T: Charming Lovely Nancy
R: slide
M: 12/8
K: Gmajor
|:G2E DED G2A B2c|c2d BAG A2G E2F|
G2E DED G2A B2c|1 d2B ABA G2d BAF:|2 d2B ABA G3 g2f||
efg d2B cde d2B|deB A/B/AG E2A A2g|
efg d2B c2e d2B|deB ABA G3 g2f|
efg d2B cde d2B|deB A/B/AG E2d A/B/AF|
G2E DED G2A B2d|d2B ABA G3 A/B/AF||

